X: 22463
T: Lady Anne Montgomery
R: reel
M: 4/4
K: Dmajor
FADA FADA|FAdA ~B3A|FGAF EGFE|DB,A,B, DCDE|
FADA FADA|FAdA B2Bc|dBAF E2 FE|1 DB,A,B, D3 E:|2 DB,A,B, D Ade||
f3 f fede|fedB ABde|f3 f fede|faaf e2de|
f3 f fede|fedB ABde|fded BA (3Bcd|1 egfe dbag:|2 egfe dBAG||

